X:1
T:Seely Simpkins' Jig
T:Seely Simpkins' Jig
T:Dan Emmett (1815-1904)
C:Dan Emmett (1815-1904)
L:1/8
M:2/4
K:Emin
V:1 treble 
V:1
 [Ee]2 [EB]>A | G/>A/B/>G/ E>F | G/>G/G B/G/(d/G/) | G/>G/G B/G/d/G/ | [Ee]2 [EB]>A | %5
 G/>A/B/>G/ Ef | g/B/e/g/ f/B/^d/f/ | e E3 :: z/ B/d/g/ b2 | z/ B/e/g/ b2 | z/ A/d/f/ a2 | %11
 z/ A/d/f/ af | g/<b/ z/ B/ b/B/b/B/ | f/<a/ z/ B/ a/B/a/B/ | g/B/e/g/ f/B/^d/f/ | e E3!D.C.! :| %16

